public/assets/icons/maildotru.svg

<svg width="24" height="24" viewBox="0 0 24 24" fill="none" xmlns="http://www.w3.org/2000/svg">
<g clip-path="url(#clip0_200_312)">
<path d="M15.61 12C15.61 13.99 13.99 15.61 12 15.61C10.01 15.61 8.39 13.99 8.39 12C8.39 10.01 10.01 8.39 12 8.39C13.99 8.39 15.61 10.01 15.61 12ZM12 0C5.383 0 0 5.383 0 12C0 18.617 5.383 24 12 24C14.424 24 16.761 23.278 18.76 21.913L18.794 21.889L17.177 20.01L17.15 20.027C15.6146 21.0162 13.8265 21.5415 12 21.54C6.74 21.54 2.46 17.26 2.46 12C2.46 6.74 6.74 2.46 12 2.46C17.26 2.46 21.54 6.74 21.54 12C21.5386 12.6894 21.4632 13.3767 21.315 14.05C21.014 15.289 20.146 15.668 19.495 15.618C18.841 15.565 18.075 15.098 18.069 13.957V12C18.0674 10.3908 17.4275 8.84794 16.2897 7.70997C15.152 6.572 13.6092 5.93185 12 5.93C10.3906 5.93159 8.84762 6.57161 7.70962 7.70962C6.57161 8.84762 5.93159 10.3906 5.93 12C5.93159 13.6094 6.57161 15.1524 7.70962 16.2904C8.84762 17.4284 10.3906 18.0684 12 18.07C12.7998 18.0719 13.5921 17.9145 14.3304 17.6068C15.0687 17.2991 15.7382 16.8474 16.3 16.278C16.6551 16.8356 17.146 17.2937 17.7268 17.6095C18.3075 17.9252 18.959 18.0882 19.62 18.083C20.494 18.083 21.36 17.791 22.057 17.262C22.776 16.715 23.313 15.926 23.61 14.977C23.657 14.823 23.745 14.473 23.745 14.47L23.747 14.457C23.922 13.697 24 12.937 24 12C24 5.383 18.617 0 12 0" fill="#FFDF00"/>
</g>
<defs>
<clipPath id="clip0_200_312">
<rect width="24" height="24" fill="white"/>
</clipPath>
</defs>
</svg>

<svg role="img" viewBox="0 0 24 24" xmlns="http://www.w3.org/2000/svg"><title>Mail.Ru</title><path d="M15.61 12c0 1.99-1.62 3.61-3.61 3.61-1.99 0-3.61-1.62-3.61-3.61 0-1.99 1.62-3.61 3.61-3.61 1.99 0 3.61 1.62 3.61 3.61M12 0C5.383 0 0 5.383 0 12s5.383 12 12 12c2.424 0 4.761-.722 6.76-2.087l.034-.024-1.617-1.879-.027.017A9.494 9.494 0 0 1 12 21.54c-5.26 0-9.54-4.28-9.54-9.54 0-5.26 4.28-9.54 9.54-9.54 5.26 0 9.54 4.28 9.54 9.54a9.63 9.63 0 0 1-.225 2.05c-.301 1.239-1.169 1.618-1.82 1.568-.654-.053-1.42-.52-1.426-1.661V12A6.076 6.076 0 0 0 12 5.93 6.076 6.076 0 0 0 5.93 12 6.076 6.076 0 0 0 12 18.07a6.02 6.02 0 0 0 4.3-1.792 3.9 3.9 0 0 0 3.32 1.805c.874 0 1.74-.292 2.437-.821.719-.547 1.256-1.336 1.553-2.285.047-.154.135-.504.135-.507l.002-.013c.175-.76.253-1.52.253-2.457 0-6.617-5.383-12-12-12"/></svg>
